X:247
T:February Flower
C:Vivaldi, "Gloria", c. 1700
L:1/8
M:6/8
S:Colin Hume's website,  colinhume.com  - chords can also be printed below the stave.
Q:3/8=96
H:For Judith Hanson
K:C
P:A
|: "C"c>dc g2c | "G"B3 "C"c3 | "G"d>ef B>cd | "C"e2dc3 |\
"Em"e>fe g2e | "A"^c3- c>BA | "Dm"f>ed "/"d>e"A"^c |1 "Dm"d2c "G"B>AG :|2 "Dm"d3- d2"C"c |
P:B
|: "G"d>ed g2f | "G7"f2"C"e- e>fg | "G"d>ed g2d | "C (Am)"c>dc "F (Dm)"f2c |\
"G"BGB dfg | "C"egf edc | "C"e>dc c>d"G"B | "C"c>d"G"B "C"c3 :|

